packages/core/src/svgs/gami.svg

<svg width="24" height="24" viewBox="0 0 24 24" fill="none" xmlns="http://www.w3.org/2000/svg">
<g clip-path="url(#clip0_31_10624)">
<path d="M0 0H24V24H0V0Z" fill="#FA096F"/>
<path d="M15.0001 15.0816C14.2627 15.829 13.264 16.2607 12.2144 16.2859C10.2387 16.2859 8.14296 14.5288 8.14296 12.0002C8.14296 9.47164 10.2387 7.7145 12.2144 7.7145C12.8415 7.7337 13.456 7.89532 14.0114 8.18712C14.5668 8.47893 15.0485 8.89327 15.4201 9.39878L17.5715 7.99307C16.9691 7.12667 16.169 6.41624 15.2374 5.92063C14.3058 5.42501 13.2695 5.15847 12.2144 5.14307C8.66582 5.14307 5.57153 8.21164 5.57153 12.0002C5.57153 15.7888 8.66582 18.8574 12.2144 18.8574C13.2695 18.842 14.3058 18.5754 15.2374 18.0798C16.169 17.5842 16.9691 16.8738 17.5715 16.0074V11.1431H12.8572V13.2859H15.0001V15.0816Z" fill="white"/>
</g>
<defs>
<clipPath id="clip0_31_10624">
<rect width="24" height="24" fill="white"/>
</clipPath>
</defs>
</svg>

<svg xmlns="http://www.w3.org/2000/svg" width="24" height="24" fill="none" viewBox="0 0 24 24"><g clip-path="url(#a)"><path fill="#FA096F" d="M0 0h24v24H0z"/><path fill="#fff" d="M15 15.082a4.05 4.05 0 0 1-2.786 1.204c-1.975 0-4.071-1.757-4.071-4.286s2.096-4.285 4.071-4.285a4.14 4.14 0 0 1 3.206 1.684l2.152-1.406a6.64 6.64 0 0 0-5.358-2.85c-3.548 0-6.642 3.069-6.642 6.857s3.094 6.857 6.642 6.857a6.64 6.64 0 0 0 5.358-2.85v-4.864h-4.715v2.143H15z"/></g><defs><clipPath id="a"><path fill="#fff" d="M0 0h24v24H0z"/></clipPath></defs></svg>
